X: 1778
T: Ar An Imeall
R: reel
M: 4/4
K: Dmajor
|:FB Bc2<d2F|Gdde c2 BA|FB Bc dF Bc|deed cA GA|
FB Bc2<d2F|Gdde2<c2B/A/|FB Bc dF Bc|deed cd ef|
g3e cd ec|f3d B/c/d ef|g3e cd ec|f4- fa fa|
g3e B/c/d ec|f3d Bc dB|e3d cd cd|1 c4- cB BA/G/:|2 c8||
|:bf fb ff bf|gb b^a ^ag gf|bf fb ff bf|bc' c'b b^a ^af|
bf fb ff bf|gb b^a ^ag gf|fe ed f/e/d ef|1 c8:|2 c4- cB =AG||

